optimized/outline/desktop-computer.svg

<svg xmlns="http://www.w3.org/2000/svg" fill="none" viewBox="0 0 24 24" stroke-width="2" stroke="currentColor" aria-hidden="true">
  <path stroke-linecap="round" stroke-linejoin="round" d="M9.75 17L9 20L8 21H16L15 20L14.25 17M3 13H21M5 17H19C20.1046 17 21 16.1046 21 15V5C21 3.89543 20.1046 3 19 3H5C3.89543 3 3 3.89543 3 5V15C3 16.1046 3.89543 17 5 17Z"/>
</svg>

<svg xmlns="http://www.w3.org/2000/svg" fill="none" viewBox="0 0 24 24" stroke-width="2" stroke="currentColor" aria-hidden="true">
  <path stroke-linecap="round" stroke-linejoin="round" d="M9.75 17L9 20l-1 1h8l-1-1-.75-3M3 13h18M5 17h14a2 2 0 002-2V5a2 2 0 00-2-2H5a2 2 0 00-2 2v10a2 2 0 002 2z"/>
</svg>
